X:160
T:Southern Ladies
M:2/2
L:1/8
K:G
(D2>F2)(A2>B2)|[M:3/2] c2 (cA) F4 G4 |[M:2/2] A4 d4 |
ed^ce d4 |A4 d4 |ed^ce d4 |DF E2 G2 D2 |
[M:3/2]G4 c6 Bc |d d3 c A3(A2>G2) |(F2D2)D2>D2-D4 |]
